polaris-icons/icons/new-icons/CardReaderChipMajor.svg

<svg width="20" height="20" viewBox="0 0 20 20" fill="none" xmlns="http://www.w3.org/2000/svg">
<path fill-rule="evenodd" clip-rule="evenodd" d="M8.12109 3.5H11.8789C12.2743 3.49999 12.6153 3.49998 12.8963 3.52293C13.1928 3.54715 13.4877 3.60064 13.7715 3.74524C14.1948 3.96095 14.5391 4.30516 14.7548 4.72852C14.8994 5.01231 14.9528 5.30722 14.9771 5.60373C15 5.88466 15 6.22572 15 6.62108V10.4375C16.0243 10.8375 16.75 11.834 16.75 13V15C16.75 15.9665 15.9665 16.75 15 16.75H5C4.0335 16.75 3.25 15.9665 3.25 15V13C3.25 11.834 3.97566 10.8375 5 10.4375L5 6.62109C4.99999 6.22573 4.99998 5.88466 5.02293 5.60373C5.04715 5.30722 5.10064 5.01231 5.24524 4.72852C5.46095 4.30516 5.80516 3.96095 6.22852 3.74524C6.51231 3.60064 6.80722 3.54715 7.10373 3.52293C7.38465 3.49998 7.72574 3.49999 8.12109 3.5ZM8.15 5H10V10H6.5V6.65C6.5 6.21759 6.50058 5.93838 6.51795 5.72588C6.53459 5.52213 6.56285 5.44659 6.58175 5.40951C6.65365 5.26839 6.76839 5.15365 6.90951 5.08175C6.94659 5.06285 7.02213 5.03459 7.22588 5.01795C7.43838 5.00059 7.71759 5 8.15 5ZM12 5.00006V10H13.5V6.65C13.5 6.21759 13.4994 5.93838 13.4821 5.72588C13.4654 5.52213 13.4372 5.44659 13.4183 5.40951C13.3464 5.26839 13.2316 5.15365 13.0905 5.08175C13.0534 5.06285 12.9779 5.03459 12.7741 5.01795C12.5873 5.00268 12.3488 5.00039 12 5.00006ZM4.75 13C4.75 12.3096 5.30964 11.75 6 11.75H14C14.6904 11.75 15.25 12.3096 15.25 13V15C15.25 15.1381 15.1381 15.25 15 15.25H5C4.86193 15.25 4.75 15.1381 4.75 15V13Z" fill="#4A4A4A"/>
</svg>

<svg viewBox="0 0 20 20" xmlns="http://www.w3.org/2000/svg"><path fill-rule="evenodd" d="M8.121 3.5h3.758c.395 0 .736 0 1.017.023.297.024.592.078.875.222.424.216.768.56.984.984.144.283.198.578.222.875.023.28.023.622.023 1.017v3.816a2.751 2.751 0 0 1 1.75 2.563v2a1.75 1.75 0 0 1-1.75 1.75h-10a1.75 1.75 0 0 1-1.75-1.75v-2a2.75 2.75 0 0 1 1.75-2.563v-3.816c0-.395 0-.736.023-1.017.024-.297.078-.592.222-.875a2.25 2.25 0 0 1 .984-.984c.283-.144.578-.198.875-.222.28-.023.622-.023 1.017-.023Zm.029 1.5h1.85v5h-3.5v-3.35c0-.432 0-.712.018-.924.017-.204.045-.28.064-.316a.75.75 0 0 1 .328-.328c.037-.02.112-.047.316-.064.212-.017.492-.018.924-.018Zm3.85 0v5h1.5v-3.35c0-.432 0-.712-.018-.924-.017-.204-.045-.28-.064-.316a.75.75 0 0 0-.327-.328c-.038-.02-.113-.047-.317-.064a10.44 10.44 0 0 0-.774-.018Zm-7.25 8c0-.69.56-1.25 1.25-1.25h8c.69 0 1.25.56 1.25 1.25v2a.25.25 0 0 1-.25.25h-10a.25.25 0 0 1-.25-.25v-2Z" fill="#5C5F62"/></svg>
